X:1
T:Humoresque
T:Humoresque 
T:Op. 101 no. 7
T:Antonín Dvořák
C:Antonín Dvořák
L:1/8
Q:1/4=120
M:4/4
K:C
V:1 tab stafflines=6 strings=E2,A2,D3,G3,B3,E4 nm="Guitar" snm="Guit."
V:1
|: [!6!G,,!3!G,]>!3!A, [!4!D,!3!G,]>!3!A, [!6!G,,!2!B,]>!2!D [!3!G,!1!E]>!2!D | %1
 [!5!C,!1!G]>!1!^F [!3!G,!1!A]>!1!G [!2!C!1!F]>!1!A [!3!G,!1!G]>!1!E | %2
 [!6!G,,!2!D]>!2!D [!3!G,!1!E]>!2!D [!6!G,,!1!G]>!1!E [!4!D,!2!D]>!2!B, | %3
 [!4!D,!3!A,]2 !4!E,2 !4!D,2 !5!C,2 | %4
 [!6!G,,!3!G,]>!3!A, [!4!D,!3!G,]>!3!A, [!6!G,,!2!B,]>!2!D [!3!G,!1!E]>!2!D | %5
 [!5!C,!1!G]>!1!^F [!3!G,!1!A]>!1!G [!2!C!1!F]>!1!A [!3!G,!1!G]>!1!E | %6
 [!6!G,,!2!D]>!2!D !1!G>!3!G, [!4!D,!3!A,]2 [!6!^F,,!2!D]2 | [!6!G,,!3!G,]2 !4!D,2 !6!G,,4 :| %8
 [!6!G,,!2!B,]!3!G, [!4!D,!1!B]>!1!A [!5!_E,!1!A]!2!B,[!6!E,,!1!G]!2!B, | %9
 [!5!C,!1!G]!3!G, !1!^F>!1!E [!6!E,,!1!E]!3!^G,!2!D!3!G, | %10
 [!5!A,,!2!D]!3!A,!2!C!1!E [!6!^F,,!2!D]!4!D,!2!C!1!E | %11
 [!6!G,,!2!B,]!3!A,!3!G,!4!D, !6!G,,2 !3!G,!3!A, | %12
 [!6!G,,!2!B,]!3!G, [!4!D,!1!B]>!1!A [!5!_E,!1!A]!2!B,[!6!E,,!1!G]!2!B, | %13
 [!5!C,!1!G]!3!G, !1!^F>!1!E [!6!E,,!1!E]!3!^G,!2!D!3!G, | %14
 [!5!A,,!2!D]!2!C!2!D!1!E [!4!D,!2!B,]!3!A,!2!B,!2!C | %15
 [!4!_E,!2!B,]2 [!4!D,!3!_B,]2 !5!^C,2 [!5!=C,!3!A,]2 | %16
 [!6!G,,!3!G,]>!3!A, [!4!D,!3!G,]>!3!A, [!6!G,,!2!B,]>!2!D [!3!G,!1!E]>!2!D | %17
 [!5!C,!1!G]>!1!^F [!3!G,!1!A]>!1!G [!2!C!1!F]>!1!A [!3!G,!1!G]>!1!E | %18
 [!6!G,,!2!D]>!2!D [!3!G,!1!E]>!2!D [!6!G,,!1!G]>!1!E [!4!D,!2!D]>!2!B, | %19
 [!4!D,!3!A,]2 !4!E,2 !4!D,2 !5!C,2 | %20
 [!6!G,,!3!G,]>!3!A, [!4!D,!3!G,]>!3!A, [!6!G,,!2!B,]>!2!D [!3!G,!1!E]>!2!D | %21
 [!5!C,!1!G]>!1!^F [!3!G,!1!A]>!1!G [!2!C!1!F]>!1!A [!3!G,!1!G]>!1!E | %22
 [!3!G,!2!D]>!2!D !1!_B>!2!D [!5!A,,!2!^C]>!1!B [!4!D,!1!A]>!1!E | [!6!G,,!3!G,!2!B,!1!G]8 |] %24

